X:1
T: Tony Molloy's  (jig)
M: 6/8
L: 1/8
K: Em
 | gfg edB | BAB EFG | FAF DFA | dAF AFD |
gfg edB  | BAB EFG | (3B^cd B AGF | GED E2 :|
B | efe Beg | bge gfe | d^cd Adf | afd fed |
ege Beg | bag fed | (3B^cd B AGF | GED E3 :|

